X: 14291
T: Gáir Na nGealt
R: reel
M: 4/4
K: Amajor
|:ag|~a3g aece|dBBA GBED|CA,~A,2 CEAF|GBed cAfg|
~a3g aece|dBBA GBED|CA,~A,2 CEAF|GBed cA:|
|:ed|cAED CA,B,=C|~B,3A, B,A,=G,B,|A,2ED CEAF|=GEFA GBed|
[1 cAED CA,B,=C|~B,3=C B,A,=G,B,|A,2ED CEAF|GBed cA:|
[2 cABG AEFD|~B,3A, B,CDB,|A,2ED CEAF|GBed cA||

